X: 3796
T: Björn's
R: polka
M: 2/4
K: Gmajor
|:"D7" B/c/|"G" dB/c/ dB/c/|dB GB/c/|dB/c/ dg|f2 ff/g/|
af/g/ af/g/|af d>e|dc BA|1 G2 G:|2 "G" Gg "G7" f=f||
|:"C" e2 c2|Gg fe|"G" d2 B2|Gg fg|
"D7" a2 f2|da ^ga|"G" b2 g2|dg "G7" f=f|
"C" e2 c2|Gg fe|"G" d2 B2|Gg fe|
"D7" d2 c2|E2 F2|"G" G>A "D7" GF|1 "G" Gg "G7" f=f:|2 "G" G2 G||

